svgs/url_checker.svg

<svg xmlns="http://www.w3.org/2000/svg" viewBox="0 0 192 192"><path d="M50.552 154.703c-6.056-.078-11.989-2.844-17.178-8.008-5.188-5.164-9.444-12.538-12.322-21.35-2.99-8.99-4.555-19.087-4.549-29.347.007-10.26 1.585-20.352 4.586-29.331 2.889-8.801 7.154-16.16 12.35-21.304 5.195-5.144 11.131-7.888 17.187-7.943m0 0 36.695-.243m-38.556 117.71 35.22.613m57.463-119c6.056.078 11.989 2.844 17.178 8.008 5.188 5.164 9.444 12.538 12.322 21.35 2.99 8.989 4.555 19.087 4.549 29.347-.007 10.26-1.584 20.352-4.586 29.332-2.889 8.8-7.154 16.159-12.349 21.303-5.196 5.144-11.132 7.888-17.187 7.944m.37-117.097-36.696.242m36.325 116.855-35.219-.614M61.37 94.193h68.216v1.226H61.37Z" fill="none" stroke="#000" stroke-width="12" stroke-linecap="round" stroke-linejoin="round"/></svg>

<svg
    xmlns="http://www.w3.org/2000/svg"
    viewBox="0 0 192 192"
    id="vector">
    <path
        id="path"
        d="M 50.552 154.703 C 44.496 154.625 38.563 151.859 33.374 146.695 C 28.186 141.531 23.93 134.157 21.052 125.345 C 18.062 116.355 16.497 106.258 16.503 95.998 C 16.51 85.738 18.088 75.646 21.089 66.667 C 23.978 57.866 28.243 50.507 33.439 45.363 C 38.634 40.219 44.57 37.475 50.626 37.42 M 50.626 37.42 L 87.321 37.177 M 48.765 154.887 L 83.985 155.5 M 141.448 36.5 C 147.504 36.578 153.437 39.344 158.626 44.508 C 163.814 49.672 168.07 57.046 170.948 65.858 C 173.938 74.847 175.503 84.945 175.497 95.205 C 175.49 105.465 173.913 115.557 170.911 124.537 C 168.022 133.337 163.757 140.696 158.562 145.84 C 153.366 150.984 147.43 153.728 141.375 153.784 M 141.745 36.687 L 105.049 36.929 M 141.374 153.784 L 106.155 153.17 M 61.37 94.193 L 129.586 94.193 L 129.586 95.419 L 61.37 95.419 Z"
        fill="none"
        stroke="#000000"
        stroke-width="12"
        stroke-linecap="round"
        stroke-linejoin="round"/>
</svg>
